X:0084
T:Rural Felicity
T:Haste to the Wedding
T:Trip to the Dargle
T:Carrick Fergus
T:The Small Pin Cushion
N:first in the Caledonian Pocket Companion under the last
N:title and the best guess is that Oswald wrote it himself
M:6/8
L:1/8
3/8=120
I: :: ::
Z:Jack Campin * www.campin.me.uk * 2009
K:D
A|AFG Aaf|{f}ede fdB|AFA (B/c/d)F|EEE E2
A|AFG Aaf|   ede fdB|AFA  faf    |ddd d2:|
a|afa afa|   bgb bgb|afa  agf    |eee ef
g|a3  f3 |   ede fdB|AFA  faf    |ddd d2:|

